X:1
T: Gourock Bay
C:
R:Strathspey
Q: 128
K:A
M:4/4
L:1/16
|:c4 B3A EA3 A4|c3c B3A cde2 fga2|c4 B3A EA3 A4|F3B B3c dcBA GB3|
c4 B3A EA3 A4|c3c B3A cde2 fga2|c4 B3A EA3 A4|F3B B3c dcBA GB3|
AA3 c3A e3A a4|AA3 c3A fedc ea3|AA3 c3A e3A a4|F3B B3c dcBA GB3|
AA3 c3A e3A a4|AA3 c3A fedc ea3|AA3 c3A e3A a4|F3B B3c dcBA GB3:|
